X:1
T:Soldo, 88.88.88
T:Soldo, 88.88.88
T:Grace Weiser Davis, 1894
T:Public Domain Courtesy of the Cyber Hymnal™
C:Grace Weiser Davis, 1894
Z:Public Domain
Z:Courtesy of the Cyber Hymnal™
%%score ( 1 2 ) ( 3 4 )
L:1/8
Q:1/4=95
M:6/8
K:F
V:1 treble 
V:2 treble 
V:3 bass 
V:4 bass 
V:1
 [FA][FA][FA] [FA]2 [FA] | [FB]2 [FB] [FA]2 [FA] | [EG]2 [EG] [EG]2 [EG] | [FA]2 [FA] [EG]3 | %4
 [FA][FA][FA] [EG]3 | [DF][DF][DF] [EG]3 | [FA][FA][FA] [FA]2 [FA] | [FB]2 [FB] [FA]2 [FA] | %8
 [EG]2 [EG] [Ec]2 [GB] | [FA]2 [GB] [Ac]3 | [Fd][Fd][Fd] (c2 A) | [EG][EG][EG] [FA]3 |] %12
V:2
 x6 | x6 | x6 | x6 | x6 | x6 | x6 | x6 | x6 | x6 | x3 F3 | x6 |] %12
V:3
 [F,C][F,C][F,C] [F,C]2 [F,C] | [F,D]2 [F,D] [F,D]2 [F,D] | [C,C]2 [C,C] [C,C]2 [C,C] | %3
 [F,C]2 [F,C] [C,C]3 | [F,C][F,C][F,C] [C,C]3 | [D,A,][D,A,][D,A,] [C,C]3 | %6
 [F,C][F,C][F,C] [F,C]2 [F,C] | [F,D]2 [F,D] [F,C]2 [F,C] | [C,C]2 [C,C] [C,G,]2 [E,C] | %9
 [F,C]2 [F,C] [F,C]3 | B,B,B, C3 | [C,C][C,C][C,C] [F,C]3 |] %12
V:4
 x6 | x6 | x6 | x6 | x6 | x6 | x6 | x6 | x6 | x6 | B,B,B, (A,2 F,) | x6 |] %12

